static/images/logo-6.svg

<svg width="192" height="58" viewBox="0 0 192 58" xmlns="http://www.w3.org/2000/svg"><path d="M27.648 21.696c0 3.264-2.688 5.952-5.952 5.952s-5.952-2.688-5.952-5.952 2.688-5.952 5.952-5.952 5.952 2.688 5.952 5.952zm-5.952 8.256c-3.264 0-5.952 2.688-5.952 5.952s2.688 5.952 5.952 5.952 5.952-2.688 5.952-5.952-2.688-5.952-5.952-5.952zM57.6 28.8c0 15.936-12.864 28.8-28.8 28.8S0 44.736 0 28.8 12.864 0 28.8 0s28.8 12.864 28.8 28.8zm-7.68 0A21.06 21.06 0 0028.8 7.68 21.06 21.06 0 007.68 28.8 21.06 21.06 0 0028.8 49.92 21.06 21.06 0 0049.92 28.8zm-14.016 1.152c-3.264 0-5.952 2.688-5.952 5.952s2.688 5.952 5.952 5.952 5.952-2.688 5.952-5.952-2.688-5.952-5.952-5.952zm0-14.208c-3.264 0-5.952 2.688-5.952 5.952s2.688 5.952 5.952 5.952 5.952-2.688 5.952-5.952-2.688-5.952-5.952-5.952zm99.072-4.416c.192 0 .384.192.576.384v6.144c0 .384-.384.576-.576.576H124.8c-.384 0-.576-.384-.576-.576v-5.952c0-.384.384-.576.576-.576h10.176zm-.192 8.64H115.2c-.192 0-.576.192-.576.576l-2.496 9.6-.192.576-3.072-10.176c0-.192-.384-.576-.576-.576h-7.68c-.192 0-.576.192-.576.576l-2.88 9.6-.192.576-.192-.576-1.152-4.8-1.152-4.8c0-.192-.384-.576-.576-.576h-15.36v-8.256c0-.192-.384-.576-.768-.384l-9.6 3.072c-.384 0-.576.192-.576.576v5.184h-2.496c-.192 0-.576.192-.576.576v7.296c0 .192.192.576.576.576h2.496v9.024c0 6.336 3.456 9.216 9.792 9.216 2.688 0 5.184-.576 6.912-1.536v-7.68c0-.384-.384-.576-.576-.384-.96.384-1.92.576-2.688.576-1.728 0-2.688-.768-2.688-2.688v-6.528h5.568c.192 0 .576-.192.576-.576v-6.144l7.296 24.192c0 .192.384.576.576.576h8.064c.192 0 .576-.192.576-.576l3.456-10.752 1.728 5.568 1.536 5.184c0 .192.384.576.576.576h8.064c.192 0 .576-.192.576-.576l7.296-24.192V46.08c0 .192.192.576.576.576h9.792c.192 0 .576-.192.576-.576V20.544c0-.192-.192-.576-.384-.576zm12.864-8.64h-9.792c-.192 0-.576.192-.576.576v33.984c0 .192.192.576.576.576h9.792c.192 0 .576-.192.576-.576V11.712c0-.192-.192-.384-.576-.384zm13.056 0h-10.176c-.192 0-.576.192-.576.576v5.952c0 .192.192.576.576.576h10.176c.192 0 .576-.192.576-.576v-6.144c0-.192-.192-.384-.576-.384zm-.192 8.64h-9.792c-.192 0-.576.192-.576.576v25.152c0 .192.192.576.576.576h9.792c.192 0 .576-.192.576-.576V20.544c0-.192-.192-.576-.576-.576zm30.912 13.056c0 7.296-6.144 13.632-14.784 13.632-8.448 0-14.592-6.336-14.592-13.632 0-7.296 6.144-13.632 14.784-13.632 8.448 0 14.592 6.336 14.592 13.632zm-10.368.192c0-2.688-1.92-4.8-4.224-4.608-2.496 0-4.224 2.112-4.224 4.608 0 2.496 1.92 4.608 4.224 4.608 2.496 0 4.224-2.112 4.224-4.608z" fill="#FFF" fill-rule="nonzero"/></svg>

<?xml version="1.0" encoding="UTF-8"?>
<svg width="192px" height="58px" viewBox="0 0 192 58" version="1.1" xmlns="http://www.w3.org/2000/svg" xmlns:xlink="http://www.w3.org/1999/xlink">
    <title>logo-6</title>
    <g id="Page-1" stroke="none" stroke-width="1" fill="none" fill-rule="evenodd">
        <g id="logo-6" fill="#FFFFFF" fill-rule="nonzero">
            <path d="M27.648,21.696 C27.648,24.96 24.96,27.648 21.696,27.648 C18.432,27.648 15.744,24.96 15.744,21.696 C15.744,18.432 18.432,15.744 21.696,15.744 C24.96,15.744 27.648,18.432 27.648,21.696 L27.648,21.696 Z M21.696,29.952 C18.432,29.952 15.744,32.64 15.744,35.904 C15.744,39.168 18.432,41.856 21.696,41.856 C24.96,41.856 27.648,39.168 27.648,35.904 C27.648,32.64 24.96,29.952 21.696,29.952 L21.696,29.952 Z M57.6,28.8 C57.6,44.736 44.736,57.6 28.8,57.6 C12.864,57.6 0,44.736 0,28.8 C0,12.864 12.864,0 28.8,0 C44.736,0 57.6,12.864 57.6,28.8 Z M49.92,28.8 C49.92,17.088 40.512,7.68 28.8,7.68 C17.088,7.68 7.68,17.088 7.68,28.8 C7.68,40.512 17.088,49.92 28.8,49.92 C40.512,49.92 49.92,40.512 49.92,28.8 Z M35.904,29.952 C32.64,29.952 29.952,32.64 29.952,35.904 C29.952,39.168 32.64,41.856 35.904,41.856 C39.168,41.856 41.856,39.168 41.856,35.904 C41.856,32.64 39.168,29.952 35.904,29.952 Z M35.904,15.744 C32.64,15.744 29.952,18.432 29.952,21.696 C29.952,24.96 32.64,27.648 35.904,27.648 C39.168,27.648 41.856,24.96 41.856,21.696 C41.856,18.432 39.168,15.744 35.904,15.744 Z M134.976,11.328 C135.168,11.328 135.36,11.52 135.552,11.712 L135.552,17.856 C135.552,18.24 135.168,18.432 134.976,18.432 L124.8,18.432 C124.416,18.432 124.224,18.048 124.224,17.856 L124.224,11.904 C124.224,11.52 124.608,11.328 124.8,11.328 L134.976,11.328 L134.976,11.328 Z M134.784,19.968 L115.2,19.968 C115.008,19.968 114.624,20.16 114.624,20.544 L112.128,30.144 L111.936,30.72 L108.864,20.544 C108.864,20.352 108.48,19.968 108.288,19.968 L100.608,19.968 C100.416,19.968 100.032,20.16 100.032,20.544 L97.152,30.144 L96.96,30.72 L96.768,30.144 L95.616,25.344 L94.464,20.544 C94.464,20.352 94.08,19.968 93.888,19.968 L78.528,19.968 L78.528,11.712 C78.528,11.52 78.144,11.136 77.76,11.328 L68.16,14.4 C67.776,14.4 67.584,14.592 67.584,14.976 L67.584,20.16 L65.088,20.16 C64.896,20.16 64.512,20.352 64.512,20.736 L64.512,28.032 C64.512,28.224 64.704,28.608 65.088,28.608 L67.584,28.608 L67.584,37.632 C67.584,43.968 71.04,46.848 77.376,46.848 C80.064,46.848 82.56,46.272 84.288,45.312 L84.288,37.632 C84.288,37.248 83.904,37.056 83.712,37.248 C82.752,37.632 81.792,37.824 81.024,37.824 C79.296,37.824 78.336,37.056 78.336,35.136 L78.336,28.608 L83.904,28.608 C84.096,28.608 84.48,28.416 84.48,28.032 L84.48,21.888 L91.776,46.08 C91.776,46.272 92.16,46.656 92.352,46.656 L100.416,46.656 C100.608,46.656 100.992,46.464 100.992,46.08 L104.448,35.328 L106.176,40.896 L107.712,46.08 C107.712,46.272 108.096,46.656 108.288,46.656 L116.352,46.656 C116.544,46.656 116.928,46.464 116.928,46.08 L124.224,21.888 L124.224,46.08 C124.224,46.272 124.416,46.656 124.8,46.656 L134.592,46.656 C134.784,46.656 135.168,46.464 135.168,46.08 L135.168,20.544 C135.168,20.352 134.976,19.968 134.784,19.968 L134.784,19.968 Z M147.648,11.328 L137.856,11.328 C137.664,11.328 137.28,11.52 137.28,11.904 L137.28,45.888 C137.28,46.08 137.472,46.464 137.856,46.464 L147.648,46.464 C147.84,46.464 148.224,46.272 148.224,45.888 L148.224,11.712 C148.224,11.52 148.032,11.328 147.648,11.328 Z M160.704,11.328 L150.528,11.328 C150.336,11.328 149.952,11.52 149.952,11.904 L149.952,17.856 C149.952,18.048 150.144,18.432 150.528,18.432 L160.704,18.432 C160.896,18.432 161.28,18.24 161.28,17.856 L161.28,11.712 C161.28,11.52 161.088,11.328 160.704,11.328 L160.704,11.328 Z M160.512,19.968 L150.72,19.968 C150.528,19.968 150.144,20.16 150.144,20.544 L150.144,45.696 C150.144,45.888 150.336,46.272 150.72,46.272 L160.512,46.272 C160.704,46.272 161.088,46.08 161.088,45.696 L161.088,20.544 C161.088,20.352 160.896,19.968 160.512,19.968 Z M191.424,33.024 C191.424,40.32 185.28,46.656 176.64,46.656 C168.192,46.656 162.048,40.32 162.048,33.024 C162.048,25.728 168.192,19.392 176.832,19.392 C185.28,19.392 191.424,25.728 191.424,33.024 L191.424,33.024 Z M181.056,33.216 C181.056,30.528 179.136,28.416 176.832,28.608 C174.336,28.608 172.608,30.72 172.608,33.216 C172.608,35.712 174.528,37.824 176.832,37.824 C179.328,37.824 181.056,35.712 181.056,33.216 Z" id="Shape"></path>
        </g>
    </g>
</svg>
